X: 2
T: L\"angtan efter Sally
C: Bruce Sagan
N: Written when Bruce and Sally were living in different states for their jobs.
R: waltz
Z: 2021 John Chambers <jc:trillian.mit.edu>
M: 3/4
L: 1/8
K: G
D2 |\
G4 B2 | d4 =f2 | e2 (ed) ce | d4 B2 | c2 (cB) Ac | B2 (BA) GB | (AB) (AG) FE | D4 D2 |
G4 B2 | d4 =f2 | e2 (ed) ce | d4 B2 | c2 (cB) Ac | B2 (BA) GB | (AB) (AD) =FA | G4 :|
|: d2 |\
g3  a g2 | =f3  g f2 | e2 (ed) ce | d4 B2 | c2 (cB) Ac | B2 (BA) GB | A2 d2 e2 | f3 e d2 |
g2 ga g2 | =f2 fg f2 | e2 (ed) ce | d4 B2 | c2 (cB) Ac | B2 (BA) GB | (AB) (AD) =FA | G4 :|

%%sep 2 1 500

